style-guide/assets/xd-icons-calendar-tiny.svg

<?xml version="1.0" encoding="UTF-8"?>
<svg width="12px" height="12px" viewBox="0 0 12 12" version="1.1" xmlns="http://www.w3.org/2000/svg" xmlns:xlink="http://www.w3.org/1999/xlink">
    <!-- Generator: Sketch 51.3 (57544) - http://www.bohemiancoding.com/sketch -->
    <title>calendar</title>
    <desc>Created with Sketch.</desc>
    <defs></defs>
    <g id="calendar" stroke="none" stroke-width="1" fill="none" fill-rule="evenodd">
        <path d="M2,5 L10,5 L10,3 L9,3 C9,3.553 8.552,4 8,4 C7.448,4 7,3.553 7,3 L5,3 C5,3.553 4.552,4 4,4 C3.448,4 3,3.553 3,3 L2,3 L2,5 Z M2,10 L10,10 L10,7 L2,7 L2,10 Z M11,12 L1,12 C0.448,12 0,11.553 0,11 L0,2 C0,1.448 0.448,1 1,1 L3,1 C3,0.448 3.448,0 4,0 C4.552,0 5,0.448 5,1 L7,1 C7,0.448 7.448,0 8,0 C8.552,0 9,0.448 9,1 L11,1 C11.552,1 12,1.448 12,2 L12,11 C12,11.553 11.552,12 11,12 Z" id="Fill-1" fill="#000000"></path>
    </g>
</svg>

<svg viewBox="0 0 12 12" xmlns="http://www.w3.org/2000/svg">
  <path d="M2 5h8V3H9a1 1 0 1 1-2 0H5a1 1 0 1 1-2 0H2v2zm0 5h8V7H2v3zm9 2H1a1 1 0 0 1-1-1V2a1 1 0 0 1 1-1h2a1 1 0 0 1 2 0h2a1 1 0 0 1 2 0h2a1 1 0 0 1 1 1v9a1 1 0 0 1-1 1z" fill="#000" fill-rule="evenodd"/>
</svg>
